images/continents/europe/leagues/primeira-liga/primeira-liga.svg

<svg xmlns="http://www.w3.org/2000/svg" width="400" height="483.951"><path d="M104.691 17.08c0 .198.508.572 1.128.831 2.536 1.059 12.071 6.894 20.93 12.808 31.434 20.983 60.326 47.802 81.473 75.626 2.822 3.713 2.837 3.744 2.084 4.156-9.686 5.293-30.033 16.828-30.114 17.071-.059.181.299.791.796 1.356 18.346 20.833 31.921 38.952 45.793 61.122 5.521 8.824 14.33 24.074 14.593 25.265.059.268.21.565.336.66.778.588 9.308 17.645 14.484 28.963 19.39 42.401 35.105 95.726 39.657 134.568.778 6.645.985 6.423 2.075-2.222 2.756-21.867 2.297-53.469-1.153-79.342-7.602-57.008-27.578-109.497-59.612-156.631-1.879-2.764-3.416-5.081-3.416-5.147 0-.067 6.459-3.721 14.354-8.12 7.895-4.4 14.427-8.189 14.516-8.42.3-.781-8.736-13.474-15.2-21.352C213.626 57.089 164.94 28.3 111.44 17.866c-5.626-1.098-6.749-1.228-6.749-.786m48.066 128.846c0 1.68 13.645 64.691 14.105 65.137.706.684 38.387 13.605 38.995 13.371.731-.28 4.843-5.721 4.843-6.407 0-2.027-13.748-22.948-22.91-34.866-12.133-15.781-35.033-40.121-35.033-37.235M97.613 284.781c-7.252.759-12.376 3.718-14.735 8.511l-1.067 2.168v62.908l1.067 2.167c5.696 11.572 29.699 11.572 35.396.001l1.068-2.167v-38.534l-10.629-.086-10.628-.087.093 3.682.094 3.682 1.731.894c6.284 3.244 6.334 3.377 6.334 16.591v10.749l-1.176.492c-2.462 1.028-8.559.864-9.935-.268-.323-.266-.411-6.396-.411-28.628v-28.289l1.234-.547c.883-.39 2.174-.546 4.527-.546s3.645.156 4.527.546l1.234.547v12.644l3.704-.221c2.037-.122 4.963-.478 6.502-.791l2.799-.569v-14.173l-1.068-2.167c-2.967-6.023-11.365-9.482-20.661-8.509m44.596.619c-3.763.284-3.792.299-4.048 2.081-.111.774-1.027 6.889-2.035 13.589-1.008 6.7-2.709 18.033-3.78 25.185a36404.34 36404.34 0 0 1-4.101 27.303 3419.689 3419.689 0 0 0-2.154 14.403c0 .364 13.205.06 13.336-.307.081-.226.738-4.633 1.46-9.794 2.033-14.523 6.265-45.096 6.472-46.749.223-1.773.47-2.733.657-2.547.115.115 5.062 34.818 5.068 35.551.001.136-1.834.247-4.078.247-2.996 0-4.122.111-4.24.419-.403 1.048-.97 6.551-.7 6.789.163.143 1.481.666 2.93 1.162 2.771.949 6.551 2.993 7.442 4.024.342.395.726 2.12 1.091 4.89.31 2.354.645 4.761.743 5.35l.18 1.07h6.393c5.718 0 6.417-.059 6.609-.561.182-.475-10.828-79.151-11.316-80.857-.335-1.175-8.473-1.812-15.929-1.248M20.412 326.907v41.159h15.783c10.705 0 15.852-.112 15.997-.347.268-.434 1.132-8.488 1.137-10.6l.004-1.563-9.465-.005c-5.205-.003-9.649-.123-9.875-.266-.322-.204-.428-7.672-.494-34.81l-.083-34.549-6.502-.089-6.502-.09v41.16m38.014-40.741c-.087.23-.121 18.715-.074 41.077l.084 40.658 6.504.09 6.503.089-.084-41.077-.083-41.077-6.345-.09c-4.897-.069-6.382.007-6.505.33m22.123 96.902c-7.601 1.698-11.863 5.626-12.749 11.75-.404 2.794-.377 56.693.03 59.831 1.876 14.458 30.087 17.32 36.47 3.7l.885-1.888v-63.539l-.908-1.848c-3.188-6.489-14.074-10.162-23.728-8.006m183.813-.023c-6.617 1.488-10.547 4.414-12.377 9.218-.921 2.418-.982 62.656-.065 64.939.308.769.495 1.399.414 1.399-.181 0 .607.989 2.259 2.835 7.892 8.82 28.436 6.96 33.335-3.018l.961-1.957.095-19.332.094-19.332-.753-.184c-.414-.101-5.197-.143-10.63-.092l-9.876.092v7.189l1.728.893c2.499 1.291 4.744 3.071 5.78 4.584.497.725.558 2.022.558 11.925v11.111l-1.875.545c-2.05.596-6.726.51-8.413-.154l-.906-.356V396.075l1.4-.414c1.846-.546 6.655-.493 8.312.091l1.317.464.165 6.419.164 6.418 2.305-.103c2.815-.126 8.797-.968 9.923-1.396l.823-.313-.105-6.995c-.125-8.26-.553-9.725-3.713-12.714-4.358-4.121-13.666-6.117-20.92-4.487m45.022.389c-.936.11-1.273.318-1.398.866-.175.765-2.266 14.56-5.248 34.63a15067.8 15067.8 0 0 1-4.291 28.611c-1.364 9.037-2.48 16.851-2.48 17.366v.937h6.584c3.622 0 6.585-.09 6.585-.199 0-.11.587-4.369 1.306-9.465.718-5.097 2.423-17.34 3.79-27.209 3.468-25.05 3.24-23.657 3.604-22.014.215.97 4.803 34.206 4.8 34.771-.002.307-1.04.412-4.088.412h-4.085l-.373 2.222c-.205 1.222-.404 2.872-.441 3.665l-.069 1.443 2.14.732c7.692 2.631 8.667 3.656 9.546 10.028.386 2.797.775 5.205.865 5.35.211.342 12.874.346 13.085.004.229-.371-11.424-81.606-11.754-81.936-.284-.284-15.907-.469-18.078-.214M20.412 424.67v41.188l6.502-.09 6.502-.089.083-34.65.084-34.65 3.867.006c2.127.003 4.608.198 5.513.433l1.646.427.086 15.916c.073 13.726.017 16.02-.411 16.673-.669 1.022-3.981 3.235-6.595 4.408l-2.133.957v7.364l4.362-.188c8.658-.371 14.247-3.142 16.898-8.378l.962-1.898v-37.874l-1.082-2.198c-3.241-6.583-8.019-8.211-24.68-8.408l-11.604-.138v41.189m95.39-40.939c-.135.136-.246 18.667-.246 41.18v40.933h13.165l.084-34.651.084-34.65h4.609c3.461 0 4.855.124 5.597.499l.987.498v28.546l-1.481 1.278c-.815.704-2.889 1.989-4.609 2.855l-3.128 1.577-.093 3.309-.093 3.309 2.408 4.918c2.557 5.221 4.831 11.486 6.616 18.232l1.089 4.115 6.806.089c6.539.085 6.806.064 6.806-.547 0-2.797-4.658-18.072-7.278-23.869-.91-2.011-1.726-3.823-1.816-4.026-.089-.203.625-.813 1.586-1.356 2.234-1.26 4.366-3.577 5.48-5.953l.876-1.869v-33.58l-1.016-2.14c-1.849-3.893-5.533-6.6-11-8.083-2.274-.616-24.885-1.163-25.433-.614m42.699.228c-.089.234-.122 3.087-.073 6.34l.091 5.915 6.255.165 6.255.164.164 34.568.165 34.568 6.501.089 6.5.09.084-34.658.084-34.657 6.255-.164 6.255-.165v-12.51l-19.186-.085c-15.437-.069-19.218-.002-19.35.34m45.108-.014c-.088.231-.122 16.645-.074 36.475l.086 36.055 1.082 2.198c5.474 11.118 28.999 11.251 34.992.198l1.128-2.081.088-36.632.088-36.633-6.508.089-6.507.09-.084 34.802-.084 34.803-1.704.506c-.938.278-2.688.506-3.89.506s-2.952-.228-3.889-.506l-1.704-.506-.084-34.803-.084-34.802-6.345-.09c-4.91-.069-6.382.006-6.507.331m143.284-.193c-.124.124-.226 18.646-.226 41.159v40.933h15.791c14.838 0 15.809-.036 16.106-.59.358-.668 1.022-7.171 1.023-10.023l.001-1.888-9.794-.087-9.794-.087-.165-34.733-.164-34.732-6.276-.089c-3.452-.05-6.377.012-6.502.137m-255.941 12.08 1.229.513v56.963l-1.706.506c-2.071.615-5.449.645-7.677.068l-1.646-.427-.084-28.69-.084-28.689 1.236-.318c.68-.174 1.533-.395 1.895-.489 1.212-.318 5.594.043 6.837.563" fill="#1c2c4c" fill-rule="evenodd"/></svg>

<svg id="svg" version="1.1" xmlns="http://www.w3.org/2000/svg" xmlns:xlink="http://www.w3.org/1999/xlink" width="400" height="483.9506172839506" viewBox="0, 0, 400,483.9506172839506"><g id="svgg"><path id="path0" d="M104.691 17.080 C 104.691 17.278,105.199 17.652,105.819 17.911 C 108.355 18.970,117.890 24.805,126.749 30.719 C 158.183 51.702,187.075 78.521,208.222 106.345 C 211.044 110.058,211.059 110.089,210.306 110.501 C 200.620 115.794,180.273 127.329,180.192 127.572 C 180.133 127.753,180.491 128.363,180.988 128.928 C 199.334 149.761,212.909 167.880,226.781 190.050 C 232.302 198.874,241.111 214.124,241.374 215.315 C 241.433 215.583,241.584 215.880,241.710 215.975 C 242.488 216.563,251.018 233.620,256.194 244.938 C 275.584 287.339,291.299 340.664,295.851 379.506 C 296.629 386.151,296.836 385.929,297.926 377.284 C 300.682 355.417,300.223 323.815,296.773 297.942 C 289.171 240.934,269.195 188.445,237.161 141.311 C 235.282 138.547,233.745 136.230,233.745 136.164 C 233.745 136.097,240.204 132.443,248.099 128.044 C 255.994 123.644,262.526 119.855,262.615 119.624 C 262.915 118.843,253.879 106.150,247.415 98.272 C 213.626 57.089,164.940 28.300,111.440 17.866 C 105.814 16.768,104.691 16.638,104.691 17.080 M152.757 145.926 C 152.757 147.606,166.402 210.617,166.862 211.063 C 167.568 211.747,205.249 224.668,205.857 224.434 C 206.588 224.154,210.700 218.713,210.700 218.027 C 210.700 216.000,196.952 195.079,187.790 183.161 C 175.657 167.380,152.757 143.040,152.757 145.926 M97.613 284.781 C 90.361 285.540,85.237 288.499,82.878 293.292 L 81.811 295.460 81.811 326.914 L 81.811 358.368 82.878 360.535 C 88.574 372.107,112.577 372.107,118.274 360.536 L 119.342 358.369 119.342 339.102 L 119.342 319.835 108.713 319.749 L 98.085 319.662 98.178 323.344 L 98.272 327.026 100.003 327.920 C 106.287 331.164,106.337 331.297,106.337 344.511 L 106.337 355.260 105.161 355.752 C 102.699 356.780,96.602 356.616,95.226 355.484 C 94.903 355.218,94.815 349.088,94.815 326.856 L 94.815 298.567 96.049 298.020 C 96.932 297.630,98.223 297.474,100.576 297.474 C 102.929 297.474,104.221 297.630,105.103 298.020 L 106.337 298.567 106.337 304.889 L 106.337 311.211 110.041 310.990 C 112.078 310.868,115.004 310.512,116.543 310.199 L 119.342 309.630 119.342 302.543 L 119.342 295.457 118.274 293.290 C 115.307 287.267,106.909 283.808,97.613 284.781 M142.209 285.400 C 138.446 285.684,138.417 285.699,138.161 287.481 C 138.050 288.255,137.134 294.370,136.126 301.070 C 135.118 307.770,133.417 319.103,132.346 326.255 C 131.275 333.407,129.430 345.694,128.245 353.558 C 127.060 361.422,126.091 367.904,126.091 367.961 C 126.091 368.325,139.296 368.021,139.427 367.654 C 139.508 367.428,140.165 363.021,140.887 357.860 C 142.920 343.337,147.152 312.764,147.359 311.111 C 147.582 309.338,147.829 308.378,148.016 308.564 C 148.131 308.679,153.078 343.382,153.084 344.115 C 153.085 344.251,151.250 344.362,149.006 344.362 C 146.010 344.362,144.884 344.473,144.766 344.781 C 144.363 345.829,143.796 351.332,144.066 351.570 C 144.229 351.713,145.547 352.236,146.996 352.732 C 149.767 353.681,153.547 355.725,154.438 356.756 C 154.780 357.151,155.164 358.876,155.529 361.646 C 155.839 364.000,156.174 366.407,156.272 366.996 L 156.452 368.066 162.845 368.066 C 168.563 368.066,169.262 368.007,169.454 367.505 C 169.636 367.030,158.626 288.354,158.138 286.648 C 157.803 285.473,149.665 284.836,142.209 285.400 M20.412 326.907 L 20.412 368.066 36.195 368.066 C 46.900 368.066,52.047 367.954,52.192 367.719 C 52.460 367.285,53.324 359.231,53.329 357.119 L 53.333 355.556 43.868 355.551 C 38.663 355.548,34.219 355.428,33.993 355.285 C 33.671 355.081,33.565 347.613,33.499 320.475 L 33.416 285.926 26.914 285.837 L 20.412 285.747 20.412 326.907 M58.426 286.166 C 58.339 286.396,58.305 304.881,58.352 327.243 L 58.436 367.901 64.940 367.991 L 71.443 368.080 71.359 327.003 L 71.276 285.926 64.931 285.836 C 60.034 285.767,58.549 285.843,58.426 286.166 M80.549 383.068 C 72.948 384.766,68.686 388.694,67.800 394.818 C 67.396 397.612,67.423 451.511,67.830 454.649 C 69.706 469.107,97.917 471.969,104.300 458.349 L 105.185 456.461 105.185 424.691 L 105.185 392.922 104.277 391.074 C 101.089 384.585,90.203 380.912,80.549 383.068 M264.362 383.045 C 257.745 384.533,253.815 387.459,251.985 392.263 C 251.064 394.681,251.003 454.919,251.920 457.202 C 252.228 457.971,252.415 458.601,252.334 458.601 C 252.153 458.601,252.941 459.590,254.593 461.436 C 262.485 470.256,283.029 468.396,287.928 458.418 L 288.889 456.461 288.984 437.129 L 289.078 417.797 288.325 417.613 C 287.911 417.512,283.128 417.470,277.695 417.521 L 267.819 417.613 267.819 421.208 L 267.819 424.802 269.547 425.695 C 272.046 426.986,274.291 428.766,275.327 430.279 C 275.824 431.004,275.885 432.301,275.885 442.204 L 275.885 453.315 274.010 453.860 C 271.960 454.456,267.284 454.370,265.597 453.706 L 264.691 453.350 264.691 424.712 L 264.691 396.075 266.091 395.661 C 267.937 395.115,272.746 395.168,274.403 395.752 L 275.720 396.216 275.885 402.635 L 276.049 409.053 278.354 408.950 C 281.169 408.824,287.151 407.982,288.277 407.554 L 289.100 407.241 288.995 400.246 C 288.870 391.986,288.442 390.521,285.282 387.532 C 280.924 383.411,271.616 381.415,264.362 383.045 M309.384 383.434 C 308.448 383.544,308.111 383.752,307.986 384.300 C 307.811 385.065,305.720 398.860,302.738 418.930 C 301.742 425.630,299.812 438.505,298.447 447.541 C 297.083 456.578,295.967 464.392,295.967 464.907 L 295.967 465.844 302.551 465.844 C 306.173 465.844,309.136 465.754,309.136 465.645 C 309.136 465.535,309.723 461.276,310.442 456.180 C 311.160 451.083,312.865 438.840,314.232 428.971 C 317.700 403.921,317.472 405.314,317.836 406.957 C 318.051 407.927,322.639 441.163,322.636 441.728 C 322.634 442.035,321.596 442.140,318.548 442.140 L 314.463 442.140 314.090 444.362 C 313.885 445.584,313.686 447.234,313.649 448.027 L 313.580 449.470 315.720 450.202 C 323.412 452.833,324.387 453.858,325.266 460.230 C 325.652 463.027,326.041 465.435,326.131 465.580 C 326.342 465.922,339.005 465.926,339.216 465.584 C 339.445 465.213,327.792 383.978,327.462 383.648 C 327.178 383.364,311.555 383.179,309.384 383.434 M20.412 424.670 L 20.412 465.858 26.914 465.768 L 33.416 465.679 33.499 431.029 L 33.583 396.379 37.450 396.385 C 39.577 396.388,42.058 396.583,42.963 396.818 L 44.609 397.245 44.695 413.161 C 44.768 426.887,44.712 429.181,44.284 429.834 C 43.615 430.856,40.303 433.069,37.689 434.242 L 35.556 435.199 35.556 438.881 L 35.556 442.563 39.918 442.375 C 48.576 442.004,54.165 439.233,56.816 433.997 L 57.778 432.099 57.778 413.162 L 57.778 394.225 56.696 392.027 C 53.455 385.444,48.677 383.816,32.016 383.619 L 20.412 383.481 20.412 424.670 M115.802 383.731 C 115.667 383.867,115.556 402.398,115.556 424.911 L 115.556 465.844 122.138 465.844 L 128.721 465.844 128.805 431.193 L 128.889 396.543 133.498 396.543 C 136.959 396.543,138.353 396.667,139.095 397.042 L 140.082 397.540 140.082 411.813 L 140.082 426.086 138.601 427.364 C 137.786 428.068,135.712 429.353,133.992 430.219 L 130.864 431.796 130.771 435.105 L 130.678 438.414 133.086 443.332 C 135.643 448.553,137.917 454.818,139.702 461.564 L 140.791 465.679 147.597 465.768 C 154.136 465.853,154.403 465.832,154.403 465.221 C 154.403 462.424,149.745 447.149,147.125 441.352 C 146.215 439.341,145.399 437.529,145.309 437.326 C 145.220 437.123,145.934 436.513,146.895 435.970 C 149.129 434.710,151.261 432.393,152.375 430.017 L 153.251 428.148 153.251 411.358 L 153.251 394.568 152.235 392.428 C 150.386 388.535,146.702 385.828,141.235 384.345 C 138.961 383.729,116.350 383.182,115.802 383.731 M158.501 383.959 C 158.412 384.193,158.379 387.046,158.428 390.299 L 158.519 396.214 164.774 396.379 L 171.029 396.543 171.193 431.111 L 171.358 465.679 177.859 465.768 L 184.359 465.858 184.443 431.200 L 184.527 396.543 190.782 396.379 L 197.037 396.214 197.037 389.959 L 197.037 383.704 177.851 383.619 C 162.414 383.550,158.633 383.617,158.501 383.959 M203.609 383.945 C 203.521 384.176,203.487 400.590,203.535 420.420 L 203.621 456.475 204.703 458.673 C 210.177 469.791,233.702 469.924,239.695 458.871 L 240.823 456.790 240.911 420.158 L 240.999 383.525 234.491 383.614 L 227.984 383.704 227.900 418.506 L 227.816 453.309 226.112 453.815 C 225.174 454.093,223.424 454.321,222.222 454.321 C 221.020 454.321,219.270 454.093,218.333 453.815 L 216.629 453.309 216.545 418.506 L 216.461 383.704 210.116 383.614 C 205.206 383.545,203.734 383.620,203.609 383.945 M346.893 383.752 C 346.769 383.876,346.667 402.398,346.667 424.911 L 346.667 465.844 362.458 465.844 C 377.296 465.844,378.267 465.808,378.564 465.254 C 378.922 464.586,379.586 458.083,379.587 455.231 L 379.588 453.343 369.794 453.256 L 360.000 453.169 359.835 418.436 L 359.671 383.704 353.395 383.615 C 349.943 383.565,347.018 383.627,346.893 383.752 M90.952 395.832 L 92.181 396.345 92.181 424.826 L 92.181 453.308 90.475 453.814 C 88.404 454.429,85.026 454.459,82.798 453.882 L 81.152 453.455 81.068 424.765 L 80.984 396.076 82.220 395.758 C 82.900 395.584,83.753 395.363,84.115 395.269 C 85.327 394.951,89.709 395.312,90.952 395.832 " stroke="none" fill="#1c2c4c" fill-rule="evenodd"></path><path id="path1" d="" stroke="none" fill="#202c4c" fill-rule="evenodd"></path><path id="path2" d="" stroke="none" fill="#202c4c" fill-rule="evenodd"></path><path id="path3" d="" stroke="none" fill="#202c4c" fill-rule="evenodd"></path><path id="path4" d="" stroke="none" fill="#202c4c" fill-rule="evenodd"></path><path id="path5" d="" stroke="none" fill="#202c4c" fill-rule="evenodd"></path><path id="path6" d="" stroke="none" fill="#202c4c" fill-rule="evenodd"></path><path id="path7" d="" stroke="none" fill="#202c4c" fill-rule="evenodd"></path></g></svg>
